!!!OTL: ICH KENNE EIN BLUEMLEIN SO EINFACH
!!!ARE: Europa, Mitteleuropa, Deutschland
!!!SCT: F0247
!!!YEM: Copyright 1995, estate of Helmut Schaffrath.
**kern
*ICvox
*Ivox
*M3/4
*k[b-e-]
*B-:
{4b-
=1
4.b-
8b-
4cc
=2
4.ee-
8dd}
{4b-
=3
4cc
4cc
8dd
8cc
=4
2cc}
{4cc
=5
4.cc
8cc
4dd
=6
4.ff
8ee-}
{4dd
=7
8dd
8cc
4b-
4a
=8
2b-}
{4dd
=9
4cc
4cc
8cc
8b-
=10
4a
4a}
{8cc
8b-
=11
4a
4a
4g
=12
2f}
{4cc
=13
4cc
4cc
4dd
=14
4.ff
8ee-}
{4dd
=15
8dd
8cc
4b-
4a
=16
2b-}
==
!!!AGN: Jugend - Lied, Natur, Pflanzen
!!!ONB: ESAC (Essen Associative Code) Database: FINK
!!!AMT: simple triple
!!!AIN: vox
!!!EED: Helmut Schaffrath
!!!EEV: 1.0
*-
